X: 19
T:Squire of Bensham
% Nottingham Music Database
S:NPTB, via EF
M:4/4
K:C
M:6/8
P:A
c/2d/2|"C"edc "F"A2F|"C/e"G2c "G7/d"E2c|"C"edc g2c|"Dm"Bdd "G7"d2c/2d/2|
"C"edc "F"A2c|"C"G2c "Am"E2c|"Dm"def "G7"e2d|"C"edc c2:|
P:B
|:c/2d/2|"C"ed"C/e"c g2c|"F"c'2a "G7"g2c|"C"edc g2c|"Dm"Adc "G7"BAG|
"C"ed"C/c"c g2c|"F"c'2a "G"ggf|"Am"abc' "G7/b"bd'b|[1"C"c'ge c2:|[2 "C" c'ge c3|
<end>
<start>
